!!!SOCIAL_FUNCTION:	songs used in the treatment of the sick
!!!PDT:	1929
!!!OTL: No_45_A_White_Wind_from_the_West.krn
!!!REG: Southwest
!!!LANG: Non-Tone
!!!LING_GROUP: Uto-Aztecan
**kern
*staff1
*clefF4
*k[b-]
*M3/4
8D\L
8D\J
=1
8A\L
8A\J
4A\
8A\L
8F\J
=2||
*M7/8
4A\
4A\
8A\L
8F\
8F\J
=3||
*M2/4
4E\
8F\L
8F\J
=4
4F\
8.F;\L
16E\Jk
=5||
*M3/4
8F\L
8F\J
8F\
8r
8E\L
8E\J
=6
8F\L
8F\J
4F\
8F\L
8E\J
=7||
*M7/8
8F\L
8F\J
4F\
8F\L
8E\
8E\J
=8||
*M2/4
4D\
8E\L
8E\J
=9
4E\
8.E\L
16D\Jk
=10
8E\L
8E\J
8E\
8r
=11!|:
8E\L
8E\J
8E\L
8E\J
=12
4F\
8F\L
8E\J
=13||
*M7/8
8F\L
8F\
8F\
8F\
8F\
8E\
8E\J
=14||
*M3/4
4D\
4r
8E\L
8E\J
=15||
*M2/4
8F\L
8F\J
8F\L
8E\J
=16
8F\
8r
12F\L
12E\
12E\J
=17||
*M3/4
4D\
4r
8E\L
8E\J
=18||
*M2/4
4F\
8F\L
8E\J
=19
4F\
8E\L
8D\J
=20
4E\
12D/L
12AA/
12AA/J
=21
8D\L
8D\J
8r
8D\
=22||
*M3/4
4D\
4AA/
4r
=23||
*M2/4
4D\
12E\L
12D\
12D\J
=24
8D\L
8D\J
8AA/L
8AA/J
=25||
*M3/4
8D\L
8D\J
8D\L
8D\J
8AA/L
8D/J
=26||
*M2/4
8D\L
8D\J
8AA/L
8AA/J
=27
8D\L
8D\J
8D\L
8D\J
=28
4D\
4AA/
=29||
*M3/4
8D\L
8D\J
2D\
==:|!
*-
